src/svgs/close-circular-button.svg

<svg width="45" height="45" fill="none" xmlns="http://www.w3.org/2000/svg"><path d="M15.533 29.455a.751.751 0 0 1-.53-1.282l13.171-13.171a.75.75 0 1 1 1.061 1.061L16.063 29.235a.744.744 0 0 1-.53.22Z" fill="#fff"/><path d="M28.704 29.455a.744.744 0 0 1-.53-.22L15.002 16.064a.75.75 0 1 1 1.061-1.061l13.171 13.171a.751.751 0 0 1-.53 1.281Z" fill="#fff"/><path d="M22.119 44.237C9.922 44.237 0 34.315 0 22.12 0 9.924 9.922.001 22.119.001S44.238 9.923 44.238 22.12s-9.924 22.117-22.119 22.117Zm0-42.736C10.75 1.501 1.5 10.751 1.5 22.12s9.25 20.619 20.619 20.619 20.619-9.25 20.619-20.619-9.25-20.619-20.619-20.619Z" fill="#fff"/></svg>

<svg width="45" height="45" viewBox="0 0 45 45" fill="none" xmlns="http://www.w3.org/2000/svg">
<path d="M15.533 29.455C15.341 29.455 15.149 29.382 15.003 29.235C14.71 28.942 14.71 28.466 15.003 28.173L28.174 15.002C28.467 14.709 28.942 14.709 29.235 15.002C29.528 15.295 29.528 15.77 29.235 16.063L16.063 29.235C15.917 29.382 15.725 29.455 15.533 29.455Z" fill="white"/>
<path d="M28.704 29.455C28.512 29.455 28.32 29.382 28.174 29.235L15.002 16.064C14.709 15.771 14.709 15.296 15.002 15.003C15.295 14.71 15.77 14.71 16.063 15.003L29.234 28.174C29.527 28.467 29.527 28.943 29.234 29.236C29.088 29.382 28.896 29.455 28.704 29.455Z" fill="white"/>
<path d="M22.119 44.237C9.922 44.237 0 34.315 0 22.12C0 9.92398 9.922 0.000976562 22.119 0.000976562C34.316 0.000976562 44.238 9.92298 44.238 22.12C44.238 34.317 34.314 44.237 22.119 44.237ZM22.119 1.50098C10.75 1.50098 1.5 10.751 1.5 22.12C1.5 33.489 10.75 42.739 22.119 42.739C33.488 42.739 42.738 33.489 42.738 22.12C42.738 10.751 33.488 1.50098 22.119 1.50098Z" fill="white"/>
</svg>
